X:1
T:Leave, Shepherds, Leave Your Peaceful Flocks
T:Leave, Shepherds, Leave Your Peaceful Flocks
T:French tune from Besançon
T:French carol, translated by W. K. Simpson
T:Courtesy of the Cyber Hymnal™
T:Courtesy of the Cyber Hymnal™
C:French tune from Besançon
Z:Courtesy of the Cyber Hymnal™
%%score ( 1 2 ) ( 3 4 )
L:1/8
Q:1/4=118
M:2/2
K:F
V:1 treble 
V:2 treble 
V:3 bass 
V:4 bass 
V:1
"^Allegro vivace" [FB]2 | A4 z2 x6 | [DF]6 C2 | [CF]2 [CG]2 [CA]2 [FB]2 | ([Ec]4 [Fc]2) [FB]2 | %5
w: 1.~Leave,|shep-|herds, leave|your peace- ful flocks|a- * grazing!|
w: 2.~There,|low-|ly laid,|with- in a man-|ger * narrow,|
w: 3.~Kings|from|the east!|His star will guide|thee * truly!|
w: 4.~Who|canst|do all|things sure- ly, hearts|en- * shrine|
 [FA]4 [EG]4 x2 | F6 [CG]2 | [CA]2 [CG]2 [CA]2 [FB]2 | c6 [CF]2 | [DF]4 [DG]4 | C6 [A,D]2 | %11
w: No long-|er grieve,|but come, O come|a- way!|Come and|a- dore,|
w: A love-|ly maid|and In- fant thou|shalt see!|His ten-|der love|
w: Where He|doth rest,|in love and faith|draw near:|Our ris-|ing Sun|
w: Thine ar-|dors sweet|and fair! For peace|is his|For peace|is His|
 [CE]2 [DF]2 [DG]2 [CE]2 | [CF]4 [DF]2 [EG]2 | [FA]2 [DG]2 [FA]2 [FB]2 | c6 z2 f2 | z2 z2 f2 x6 | %16
w: your tears all changed|to prais- ing;|Of Him the heav’n-|ly King,|O|
w: hath sought thee in|thy sor- row—|Thy dark- ness to|re- move!|He|
w: re- ceives thy hom-|age du- ly!|O bring to Him|each one—|Each|
w: that through Thee liv-|eth pure- ly!|And add- ed un-|to this,|all|
 z2 [Ff]2 x6 | [Fe]2 [Fd]2 [Fc]2 [FB]2 | [FA]4 [EG]4 x2 | !fermata!F6 |] %20
w: |sing, O sing Your|Sav- ior|born|
w: |came, to prove A|lov- ing|Shep-|
w: |one! Each one! Your|in- cense|and|
w: |joy, and bliss— Since|God hath|sent|
V:2
 x2 | F6 (G4 E2) | x6 C2 | x8 | x8 | x10 | F6 x2 | x8 | (F4 E2) x2 | x8 | C6 x2 | x8 | x8 | x8 | %14
 E4 F4 x2 | c6 E2 F4 | (c6 E2 F2) | x8 | x10 | F6 |] %20
V:3
 [B,D]2 | [F,C]4 [C,C]4 x4 | [D,A,]6 [E,G,]2 | [F,A,]2 [E,G,]2 F,2 [D,F,]2 | %4
 ([C,G,]4 [F,A,]2) [B,,D]2 | C6 z2 G,2 | [F,A,]6 [E,G,]2 | F,2 [E,G,]2 F,2 [D,F,]2 | %8
 [C,G,]6 [F,A,]2 | [D,A,]4 (G,2 F,2) | ([C,E,]2 [D,F,]2 [E,G,]2) [F,A,]2 | %11
 [E,G,]2 [D,A,]2 [B,,G,]2 [C,G,]2 | A,4 [D,A,]2 [C,C]2 | [F,C]2 [G,B,]2 [F,C]2 [D,F,]2 | %14
 [C,G,]4 [F,A,]4 x2 | z2 [C,G,]2 [F,A,]4 x4 | z2 [G,B,]2 [A,C]2 [D,A,]2 x2 | %17
 [C,A,]2 [B,,B,]2 [A,,C]2 [B,,D]2 | C6 (z2 G,2) | !fermata![F,A,]6 |] %20
V:4
 x2 | x12 | x8 | x4 F,2 x2 | x8 | C,4 C,4 x2 | x8 | F,2 F,2 x4 | x8 | x4 B,,4 | x8 | x8 | %12
 (F,2 E,2) x4 | x8 | x10 | x12 | x10 | x8 | C,4 C,4 x2 | x6 |] %20

